icons/midnadark/actions/24/embosstool.svg

<svg xmlns="http://www.w3.org/2000/svg" viewBox="0 0 22 22"><g transform="translate(-553.72-583.12)" color="#000"><g fill="#fff"><path d="m3 3v16h14 2v-2-14h-16m2 2h12v12h-12v-12" transform="translate(553.72 583.12)"/><path d="m560.72 590.12v8h8v-8h-8m2 2h4v4h-4v-4"/></g><path d="m3 3v1 14 1h15 1v-1-14-1h-1-14-1m1 1h14v14h-14v-14m3 3v1 6 1h8v-1-6-1h-1-6-1m1 1h6v6h-6v-6" transform="translate(553.72 583.12)" fill="#b3b3b3"/></g></svg>

<?xml version="1.0" encoding="UTF-8" standalone="no"?>
<!-- Created with Inkscape (http://www.inkscape.org/) -->

<svg
   xmlns:dc="http://purl.org/dc/elements/1.1/"
   xmlns:cc="http://creativecommons.org/ns#"
   xmlns:rdf="http://www.w3.org/1999/02/22-rdf-syntax-ns#"
   xmlns:svg="http://www.w3.org/2000/svg"
   xmlns="http://www.w3.org/2000/svg"
   xmlns:sodipodi="http://sodipodi.sourceforge.net/DTD/sodipodi-0.dtd"
   xmlns:inkscape="http://www.inkscape.org/namespaces/inkscape"
   width="22"
   height="22"
   id="svg3760"
   version="1.1"
   inkscape:version="0.91 r13725"
   sodipodi:docname="embosstool.svg">
  <defs
     id="defs3762">
    <inkscape:perspective
       id="perspective4090"
       inkscape:persp3d-origin="12 : 8 : 1"
       inkscape:vp_z="24 : 12 : 1"
       inkscape:vp_y="0 : 1000 : 0"
       inkscape:vp_x="0 : 12 : 1"
       sodipodi:type="inkscape:persp3d" />
  </defs>
  <sodipodi:namedview
     id="base"
     pagecolor="#ffffff"
     bordercolor="#666666"
     borderopacity="1.0"
     inkscape:pageopacity="0.0"
     inkscape:pageshadow="2"
     inkscape:zoom="23.979308"
     inkscape:cx="2.2455742"
     inkscape:cy="7.6911957"
     inkscape:document-units="px"
     inkscape:current-layer="layer1"
     showgrid="true"
     fit-margin-top="0"
     fit-margin-left="0"
     fit-margin-right="0"
     fit-margin-bottom="0"
     inkscape:window-width="1366"
     inkscape:window-height="633"
     inkscape:window-x="0"
     inkscape:window-y="33"
     inkscape:window-maximized="1"
     inkscape:showpageshadow="false"
     inkscape:snap-bbox="true"
     inkscape:object-nodes="true">
    <sodipodi:guide
       position="4.1796875e-06,21.999997"
       orientation="22,0"
       id="guide4116" />
    <sodipodi:guide
       position="4.1796875e-06,-2.6953124e-06"
       orientation="0,22"
       id="guide4118" />
    <sodipodi:guide
       position="22.000004,-2.6953124e-06"
       orientation="-22,0"
       id="guide4120" />
    <sodipodi:guide
       position="22.000004,21.999997"
       orientation="0,-22"
       id="guide4122" />
    <sodipodi:guide
       position="2.0000042,19.999997"
       orientation="18,0"
       id="guide4124" />
    <sodipodi:guide
       position="20.000004,1.9999973"
       orientation="-18,0"
       id="guide4128" />
    <sodipodi:guide
       position="20.000004,19.999997"
       orientation="0,-18"
       id="guide4130" />
    <sodipodi:guide
       position="3.0000042,18.999997"
       orientation="16,0"
       id="guide4132" />
    <sodipodi:guide
       position="3.0000042,2.9999973"
       orientation="0,16"
       id="guide4134" />
    <sodipodi:guide
       position="19.000004,2.9999973"
       orientation="-16,0"
       id="guide4136" />
    <sodipodi:guide
       position="19.000004,18.999997"
       orientation="0,-16"
       id="guide4138" />
    <inkscape:grid
       type="xygrid"
       id="grid4140" />
  </sodipodi:namedview>
  <metadata
     id="metadata3765">
    <rdf:RDF>
      <cc:Work
         rdf:about="">
        <dc:format>image/svg+xml</dc:format>
        <dc:type
           rdf:resource="http://purl.org/dc/dcmitype/StillImage" />
        <dc:title />
      </cc:Work>
    </rdf:RDF>
  </metadata>
  <g
     inkscape:label="Capa 1"
     inkscape:groupmode="layer"
     id="layer1"
     transform="translate(-553.72253,-583.11926)">
    <rect
       style="fill:#4d4d4d;fill-opacity:1;stroke:none"
       id="rect4035"
       width="0"
       height="10.999983"
       x="537.72253"
       y="591.11926" />
    <rect
       style="fill:#4d4d4d;fill-opacity:1;stroke:none"
       id="rect4035-5"
       width="0"
       height="10.999983"
       x="555.76331"
       y="589.06799" />
    <rect
       style="fill:#4d4d4d;fill-opacity:1;stroke:none"
       id="rect4035-8"
       width="0"
       height="10.999983"
       x="537.72253"
       y="591.11926" />
    <rect
       style="fill:#4d4d4d;fill-opacity:1;stroke:none"
       id="rect4035-59"
       width="0"
       height="10.999983"
       x="537.72253"
       y="591.11926" />
    <rect
       style="fill:#4d4d4d;fill-opacity:1;stroke:none"
       id="rect4035-60"
       width="0"
       height="10.999983"
       x="516.25439"
       y="587.73975" />
    <rect
       style="fill:#4d4d4d;fill-opacity:1;stroke:none"
       id="rect4035-5-15"
       width="0"
       height="10.999983"
       x="534.29517"
       y="585.68848" />
    <rect
       style="fill:#4d4d4d;fill-opacity:1;stroke:none"
       id="rect4035-8-03"
       width="0"
       height="10.999983"
       x="516.25439"
       y="587.73975" />
    <rect
       style="fill:#4d4d4d;fill-opacity:1;stroke:none"
       id="rect4035-59-10"
       width="0"
       height="10.999983"
       x="516.25439"
       y="587.73975" />
    <rect
       style="fill:#4d4d4d;fill-opacity:1;stroke:none"
       id="rect4035-6"
       width="0"
       height="10.999983"
       x="508.94623"
       y="582.90515" />
    <rect
       style="fill:#4d4d4d;fill-opacity:1;stroke:none"
       id="rect4035-5-1"
       width="0"
       height="10.999983"
       x="526.987"
       y="580.85376" />
    <rect
       style="fill:#4d4d4d;fill-opacity:1;stroke:none"
       id="rect4035-8-3"
       width="0"
       height="10.999983"
       x="508.94623"
       y="582.90515" />
    <rect
       style="fill:#4d4d4d;fill-opacity:1;stroke:none"
       id="rect4035-59-4"
       width="0"
       height="10.999983"
       x="508.94623"
       y="582.90515" />
    <rect
       style="fill:#4d4d4d;fill-opacity:1;stroke:none"
       id="rect4035-1"
       width="0"
       height="10.999983"
       x="514.96136"
       y="587.12134" />
    <rect
       style="fill:#4d4d4d;fill-opacity:1;stroke:none"
       id="rect4035-5-0"
       width="0"
       height="10.999983"
       x="533.00214"
       y="585.07007" />
    <rect
       style="fill:#4d4d4d;fill-opacity:1;stroke:none"
       id="rect4035-8-1"
       width="0"
       height="10.999983"
       x="514.96136"
       y="587.12134" />
    <rect
       style="fill:#4d4d4d;fill-opacity:1;stroke:none"
       id="rect4035-59-1"
       width="0"
       height="10.999983"
       x="514.96136"
       y="587.12134" />
    <rect
       style="fill:#4d4d4d;fill-opacity:1;stroke:none"
       id="rect4035-0"
       width="0"
       height="10.999983"
       x="513.72253"
       y="591.11926" />
    <rect
       style="fill:#4d4d4d;fill-opacity:1;stroke:none"
       id="rect4035-5-5"
       width="0"
       height="10.999983"
       x="531.76331"
       y="589.06799" />
    <rect
       style="fill:#4d4d4d;fill-opacity:1;stroke:none"
       id="rect4035-8-6"
       width="0"
       height="10.999983"
       x="513.72253"
       y="591.11926" />
    <rect
       style="fill:#4d4d4d;fill-opacity:1;stroke:none"
       id="rect4035-59-11"
       width="0"
       height="10.999983"
       x="513.72253"
       y="591.11926" />
    <rect
       style="fill:#4d4d4d;fill-opacity:1;stroke:none"
       id="rect4035-9"
       width="0"
       height="10.999983"
       x="497.73444"
       y="587.48535" />
    <rect
       style="fill:#4d4d4d;fill-opacity:1;stroke:none"
       id="rect4035-5-8"
       width="0"
       height="10.999983"
       x="515.77521"
       y="585.43408" />
    <rect
       style="fill:#4d4d4d;fill-opacity:1;stroke:none"
       id="rect4035-8-0"
       width="0"
       height="10.999983"
       x="497.73444"
       y="587.48535" />
    <rect
       style="fill:#4d4d4d;fill-opacity:1;stroke:none"
       id="rect4035-59-1-8"
       width="0"
       height="10.999983"
       x="497.73444"
       y="587.48535" />
    <path
       style="color:#000000;display:inline;overflow:visible;visibility:visible;fill:#ffffff;fill-opacity:1;fill-rule:nonzero;stroke:none;stroke-width:2;marker:none;enable-background:accumulate"
       d="M 3 3 L 3 19 L 17 19 L 19 19 L 19 17 L 19 3 L 3 3 z M 5 5 L 17 5 L 17 17 L 5 17 L 5 5 z "
       transform="translate(553.72253,583.11926)"
       id="rect4061" />
    <path
       inkscape:connector-curvature="0"
       style="color:#000000;display:inline;overflow:visible;visibility:visible;fill:#ffffff;fill-opacity:1;fill-rule:nonzero;stroke:none;stroke-width:2;marker:none;enable-background:accumulate"
       d="m 560.72253,590.11926 0,8 8,0 0,-8 -8,0 z m 2,2 4,0 0,4 -4,0 0,-4 z"
       id="rect4105" />
    <path
       style="color:#000000;display:inline;overflow:visible;visibility:visible;fill:#b3b3b3;fill-opacity:1;fill-rule:nonzero;stroke:none;stroke-width:2;marker:none;enable-background:accumulate"
       d="M 3 3 L 3 4 L 3 18 L 3 19 L 18 19 L 19 19 L 19 18 L 19 4 L 19 3 L 18 3 L 4 3 L 3 3 z M 4 4 L 18 4 L 18 18 L 4 18 L 4 4 z M 7 7 L 7 8 L 7 14 L 7 15 L 15 15 L 15 14 L 15 8 L 15 7 L 14 7 L 8 7 L 7 7 z M 8 8 L 14 8 L 14 14 L 8 14 L 8 8 z "
       transform="translate(553.72253,583.11926)"
       id="rect4115" />
  </g>
</svg>
